X: 1798
T: Suda Balık Oynuyor
C: Neşet Ertaş
O: Turkey
F: http://compmusic.upf.edu/node/140
N: hicaz--turku--sofyan--suda_balik--kirsehir
N: makam= hicaz
N: form= turku
N: usul= sofyan = 4/4
M: 4/4
L: 1/16
K: C _7/8B ^f ^c 
Q: 1/4=87
%%MIDI tuningsystem comma53
z4 A2A2 A2z2 A2=f2  | e2d2 c2B2 c2BA B2G2  | \
w:   |   | 
A4 A2A2 A2z2 A2=f2  | 
w:   | 
e2d2 c2B2 c2BA B2G2  | A4 A2A2 A2z2 A2=f2  | \
w:   |   | 
e2d2 c2B2 c2BA B2G2  | 
w:   | 
A2z2 c2d2 e2e4z2  | z2e6 a2a6  | a2a4g2 a2gf g2f2  | \
w:  *  Su da  ba lık   |  oy nu yor    |  Su da  *  ba lık   | 
g2e2 f3e g2{a}gf g4  | 
w:  oy *  *  *  nu *  yor    | 
z4 f2g2 g2f2 g3f  | z2g4f2 g2=fe f4  | \
w:  Ca nım  sa na   |  kay *  nı yor    | 
e2d2 d2=f2 e2d2 c{e}dB2  | 
w:  *  *  Ca nım  sa *  na   | 
c2BA B2G2 B2A6  | A2AA A2=f2 e2d2 c2B2  | \
w:  kay *  *  *  *  nı yor    |  SAZ  | 
c2BA B2G2 A2AA A2A2  | 
w:   | 
A2AA A2=f2 e2d2 c2B2  | c2BA B2G2 A2AA A2A2  | \
w:  SAZ  |   | 
A2z2 a2a2 a4 a4  | 
w:  *  Düş tüm  mer ha  | 
a2=b4a2 b2a^g a4  | z4 a2=c'2 =b2a2 ^g2=f2  | \
w:  *  met *  si ze    |  Düş tüm  mer *  ha  | 
^g3e =f2d2 e2c2 d4  | 
w:  met *  *  *  si ze    | 
z4 e2f2 g2f2 g3f  | g8 g2=fe f4  | e2d2 d2=f2 e2d2 c2{e}dB  | 
w:  Hiç  ha lim *  den   |  bil mi yor    |  *  *  Hiç  ha lim *  den   | 
c2BA B2G2 B2A6  | z4 A2A2 A4 e2=f2  | \
w:  bil *  *  *  *  mi yor    |  Ley li  ley li   | 
e2d2 c2B2 c2BA B2G2  | 
w:  köy *  lü  *  kı zı    | 
A4 A2A2 A4 e2=f2  | e2d2 c2B2 c2BA B2G2  | \
w:  *  Sen_ al lar  giy   |  ben  *  kır *  mı zı    | 
A4 f2g2 g2=f2 e2d2  | 
w:  *  Yi ne  doğ *  du   | 
e2c2 d2B2 c2BA B2G2  | A4 A2A2 A4 e2=f2  | \
w:  tan  *  yıl *  dı zı    |  *  Doğ maz_ ol sun   | 
e2d2 c2B2 B2A6  | 
w:  tan  *  yıl *  dı zı    | 
|


